icons/Menu.svg

<svg width="24" height="24" viewBox="0 0 24 24" fill="none" xmlns="http://www.w3.org/2000/svg">
<path fill-rule="evenodd" clip-rule="evenodd" d="M20.5 17C20.6326 17 20.7598 17.0527 20.8536 17.1464C20.9473 17.2402 21 17.3674 21 17.5V19.5C21 19.6326 20.9473 19.7598 20.8536 19.8536C20.7598 19.9473 20.6326 20 20.5 20H3.5C3.36739 20 3.24021 19.9473 3.14645 19.8536C3.05268 19.7598 3 19.6326 3 19.5V17.5C3 17.3674 3.05268 17.2402 3.14645 17.1464C3.24021 17.0527 3.36739 17 3.5 17H20.5ZM20.5 10.5C20.6326 10.5 20.7598 10.5527 20.8536 10.6464C20.9473 10.7402 21 10.8674 21 11V13C21 13.1326 20.9473 13.2598 20.8536 13.3536C20.7598 13.4473 20.6326 13.5 20.5 13.5H3.5C3.36739 13.5 3.24021 13.4473 3.14645 13.3536C3.05268 13.2598 3 13.1326 3 13V11C3 10.8674 3.05268 10.7402 3.14645 10.6464C3.24021 10.5527 3.36739 10.5 3.5 10.5H20.5ZM20.5 4C20.6326 4 20.7598 4.05268 20.8536 4.14645C20.9473 4.24021 21 4.36739 21 4.5V6.5C21 6.63261 20.9473 6.75979 20.8536 6.85355C20.7598 6.94732 20.6326 7 20.5 7H3.5C3.36739 7 3.24021 6.94732 3.14645 6.85355C3.05268 6.75979 3 6.63261 3 6.5V4.5C3 4.36739 3.05268 4.24021 3.14645 4.14645C3.24021 4.05268 3.36739 4 3.5 4H20.5Z" fill="black"/>
</svg>

<svg xmlns="http://www.w3.org/2000/svg" viewBox="0 0 24 24">
  <path d="M20.5 17a.5.5 0 01.5.5v2a.5.5 0 01-.5.5h-17a.5.5 0 01-.5-.5v-2a.5.5 0 01.5-.5h17zm0-6.5a.5.5 0 01.5.5v2a.5.5 0 01-.5.5h-17A.5.5 0 013 13v-2a.5.5 0 01.5-.5h17zm0-6.5a.5.5 0 01.5.5v2a.5.5 0 01-.5.5h-17a.5.5 0 01-.5-.5v-2a.5.5 0 01.5-.5h17z"/>
</svg>
